X: 20802
T: MY FRIEND AND PITCHER
Q: "Largo"
%R: air
B: "Edinburgh Repository of Music" v.2 p.80 #2
F: http://digital.nls.uk/special-collections-of-printed-music/pageturner.cfm?id=87776133
Z: 2015 John Chambers <jc:trillian.mit.edu>
M: C|
L: 1/8
K: A
"_dolce"A |\
A3"_P."c e3f | ecac {c}B3c |\
A3c e3f | a3b (c'<a) (ea) |\
(ag)(gf) f3e | (ec)(ef) {gab}a3f |\
(ec) {d}c{B}A {c}B3c | A3B c<A z2{g}"_F."a |\
a3b c'<a |]

%%sep 2 1 500
%%sep 1 1 500

